Public/images/clients/n26_dark.svg

<svg enable-background="new 0 0 139.5 79.3" viewBox="0 0 139.5 79.3" xmlns="http://www.w3.org/2000/svg"><path d="m15.2 27.9 22.8 33.6h4.2v-43.8h-5.1v33.3l-22.1-32.5-.5-.9h-2.4v-.1.1h-1.9v43.8h5.1zm60.3 16.1c7.7-4.6 10.7-8.7 10.7-14.4 0-7.7-5.2-12.8-13.3-12.8-6.1 0-11.7 3.6-14.1 9.2l-.8 1.7 4.6 2.1.8-1.6c1.6-3.9 5.3-6.4 9.5-6.4 5.1 0 8.2 2.9 8.2 7.7 0 3.1-1.4 5.9-8.1 10.1-12 7.4-14.7 10.7-15 18.6v3.3h28.1v-5.1h-22.8c.4-3.9 2.2-6.3 12.2-12.4zm39.3-10.9c-3.8.1-7.5 1.5-10.4 3.8.8-9.5 5-15 11.4-15 2.8-.1 5.7 1 7.7 3.1l1.5 1.3 3.3-3.9-1.5-1.3c-3-2.7-7-4.2-11-4.2-10.2 0-16.6 8.9-16.6 23.5 0 16.2 8.1 22 15.6 22 9.5 0 14.6-7.6 14.6-15 0-10.6-7.9-14.3-14.6-14.3zm9.6 14.1c0 5-3.3 10.1-9.5 10.1-4.2 0-9.5-3.6-10.4-13.7 1.8-2.2 5.8-5.5 10.5-5.5 8.3-.1 9.4 6.4 9.4 9.1zm-114.3 20.1h32.1v3.7h-32.1zm.1-59h32.1v3.8h-32.1z" fill="#98abb6"/></svg>

<?xml version="1.0" encoding="utf-8"?>
<!-- Generator: Adobe Illustrator 23.0.4, SVG Export Plug-In . SVG Version: 6.00 Build 0)  -->
<svg version="1.1" id="Layer_1" xmlns="http://www.w3.org/2000/svg" xmlns:xlink="http://www.w3.org/1999/xlink" x="0px" y="0px"
	 viewBox="0 0 139.5 79.3" style="enable-background:new 0 0 139.5 79.3;" xml:space="preserve">
<style type="text/css">
	.st0{fill:#98ABB6;}
</style>
<path class="st0" d="M15.2,27.9L38,61.5h4.2V17.7h-5.1V51L15,18.5l-0.5-0.9h-2.4v-0.1v0.1h-1.9v43.8h5.1L15.2,27.9L15.2,27.9z
	 M75.5,44c7.7-4.6,10.7-8.7,10.7-14.4c0-7.7-5.2-12.8-13.3-12.8c-6.1,0-11.7,3.6-14.1,9.2L58,27.7l4.6,2.1l0.8-1.6
	c1.6-3.9,5.3-6.4,9.5-6.4c5.1,0,8.2,2.9,8.2,7.7c0,3.1-1.4,5.9-8.1,10.1C61,47,58.3,50.3,58,58.2v3.3h28.1v-5.1H63.3
	C63.7,52.5,65.5,50.1,75.5,44z M114.8,33.1c-3.8,0.1-7.5,1.5-10.4,3.8c0.8-9.5,5-15,11.4-15c2.8-0.1,5.7,1,7.7,3.1l1.5,1.3l3.3-3.9
	l-1.5-1.3c-3-2.7-7-4.2-11-4.2c-10.2,0-16.6,8.9-16.6,23.5c0,16.2,8.1,22,15.6,22c9.5,0,14.6-7.6,14.6-15
	C129.4,36.8,121.5,33.1,114.8,33.1z M124.4,47.2c0,5-3.3,10.1-9.5,10.1c-4.2,0-9.5-3.6-10.4-13.7c1.8-2.2,5.8-5.5,10.5-5.5
	C123.3,38,124.4,44.5,124.4,47.2z M10.1,67.3h32.1V71H10.1V67.3z M10.2,8.3h32.1v3.8H10.2V8.3z"/>
</svg>
